X:1
T:CHORALE
T:1. Chorale in F
T:Wie wohl ist mir, o Freund der Seelen (What joy is mine, o Friend of mortals) 
T:Compiled from ANNA MAGDALENE´S NOTE BOOK
T:Transcripción: Sensemaya Musik
T:sensemaya2020 - phernandez1179@gmail.com
T:sensemaya2020 - phernandez1179@gmail.com
C:Compiled from ANNA MAGDALENE´S NOTE BOOK
Z:Transcripción: Sensemaya Musik
Z:sensemaya2020 - phernandez1179@gmail.com
%%score { 1 | 2 }
L:1/8
Q:1/4=82
M:3/4
K:F
V:1 treble nm="Piano" snm="Pno."
V:2 bass 
V:1
!p! (!1!F2 !2!A2 !3!B2 | !4!c4)"_cresc." (!1!A2 | !4!d4 c!mp!d |!>(! B4 A2)!>)! |!p! (!5!f2 e2 d2 | %5
!<(! !1!=B4 !2!c2)!<)! |!mp! (!3!de!>(! =B4 | c6)!>)! |!mf! (!1!G2 !4!c2 G2 | G4) (!2!A2 | %10
!<(! !3!B3 c/d/!<)!!f! cB |!>(! !2!A4 !1!G2)!>)! |!mf! !4!c2 !1!G2 ((!3!AG)) | !1!G4 !2!A2 | %14
!<(! !3!B3 c/d/!<)!!f! cB |!>(! ((!2!A4 !1!G2))!>)! |!mf! ((!3!c2"_cresc." !1!A2) !4!d2 | %17
!f! !2!=B4 !3!c2 | !5!f!3!d!>(! !1!=B4!>)! |!mf! !2!c6) |!f! (!5!f2!>(! !2!c2 c2!>)! | %21
!mf! !1!c4)!<(! (!2!d2 | !3!_e3!<)!!f! f/g/ fe |!>(! d4 c2)!>)! |!mf! (!5!f2!>(! !2!c2 c2!>)! | %25
!mp! !1!c4)!<(! (!2!d2 | !3!_e3!<)!!mf! f/g/ fe |!>(! d4 c2)!>)! |!p! (!5!d2 !3!B2 !1!G2 | %29
 !4!c4 d2) | (!3!A2 B2 G2 | !fermata!F6) |] %32
V:2
 !5!F,4 G,2 | A,4 !5!F,2 | !2!B,4 !1!A,2 | !2!G,2 !5!C,2 !2!F,2 | !4!D,2 E,2 F,2 | G,2 F,2 E,2 | %6
 F,2 G,2 G,,2 | C,6 | !5!C,2 !3!E,2 !2!G,2 | C2 B,2 !3!A,2 | !1!G,2 !2!F,2 E,2 | %11
 !1!F,2 !5!F,,2 !2!C,2 | !5!C,2 C2 =B,2 | C2 B,2 !3!A,2 | !1!G,2 F,2 E,2 | !1!F,2 !5!F,,2 !2!C,2 | %16
 !1!E,2 !2!F,2 !4!D,2 | !1!G,2 F,2 E,2 | !2!F,2 !1!G,2 !5!G,,2 | !3!C,6 | !1!A,2 !3!E,2 !5!C,2 | %21
 !2!F,2 !3!_E,2 !1!D,2 | !2!C,2 B,,2 A,,2 | !3!B,,2 !1!D,2 !2!F,2 | !1!A,2 !3!E,2 !5!C,2 | %25
 !2!F,2 !3!_E,2 !1!D,2 | !2!C,2 B,,2 A,,2 | !3!B,,2 !1!D,2 !2!F,2 | !1!B,2 !5!B,,2 !1!B,2- | %29
 B,2 !3!A,2 !2!B,2 | !1!C2 B,2 C2 | !fermata!F,6 |] %32

